X: 33809
T: Ray's Wheel
R: jig
M: 6/8
K: Aminor
A2E FGA|BGG cBG|A2E FGA|BGG dcB|
A2E FGA|BGG cBG|dzc BGG|BGG Bcd:|
|:eAA cz(B|B)GG BGG|eAA czB|cBA Bcd|
eAA cz(B|B)GG BGG|eAA fz(e|e)dc BcA:|

